ui/src/assets/logoText.svg

<svg width="209" height="60" viewBox="0 0 209 60" fill="none" xmlns="http://www.w3.org/2000/svg">
<path d="M93.76 37.2C93.76 37.8133 93.7067 38.3467 93.6 38.8H92C92.1067 39.2267 92.16 39.76 92.16 40.4C92.16 41.0133 92.1067 41.5467 92 42H83.2C83.0933 41.5467 83.04 41.0133 83.04 40.4C83.04 39.76 83.0933 39.2267 83.2 38.8H90.4C90.2933 38.3467 90.24 37.8133 90.24 37.2C90.24 36.56 90.2933 36.0267 90.4 35.6H84C83.8933 35.1467 83.84 34.6133 83.84 34C83.84 33.36 83.8933 32.8267 84 32.4H82.4C82.2933 31.9467 82.24 31.4133 82.24 30.8C82.24 30.16 82.2933 29.6267 82.4 29.2H84C83.8933 28.7467 83.84 28.2133 83.84 27.6C83.84 26.96 83.8933 26.4267 84 26H92.8C92.9067 26.4267 92.96 26.96 92.96 27.6C92.96 28.2133 92.9067 28.7467 92.8 29.2H85.6C85.7067 29.6267 85.76 30.16 85.76 30.8C85.76 31.4133 85.7067 31.9467 85.6 32.4H92C92.1067 32.8267 92.16 33.36 92.16 34C92.16 34.6133 92.1067 35.1467 92 35.6H93.6C93.7067 36.0267 93.76 36.56 93.76 37.2ZM110.576 34C110.576 34.6133 110.522 35.1467 110.416 35.6H109.216C109.322 36.0267 109.376 36.56 109.376 37.2C109.376 37.8133 109.322 38.3467 109.216 38.8H107.216C107.322 39.2267 107.376 39.76 107.376 40.4C107.376 41.0133 107.322 41.5467 107.216 42H100.816C100.709 41.5467 100.656 41.0133 100.656 40.4C100.656 39.76 100.709 39.2267 100.816 38.8H98.8156C98.709 38.3467 98.6556 37.8133 98.6556 37.2C98.6556 36.56 98.709 36.0267 98.8156 35.6H97.6156C97.509 35.1467 97.4556 34.6133 97.4556 34C97.4556 33.36 97.509 32.8267 97.6156 32.4H98.8156C98.709 31.9467 98.6556 31.4133 98.6556 30.8C98.6556 30.16 98.709 29.6267 98.8156 29.2H100.816C100.709 28.7467 100.656 28.2133 100.656 27.6C100.656 26.96 100.709 26.4267 100.816 26H107.216C107.322 26.4267 107.376 26.96 107.376 27.6C107.376 28.2133 107.322 28.7467 107.216 29.2H109.216C109.322 29.6267 109.376 30.16 109.376 30.8C109.376 31.4133 109.322 31.9467 109.216 32.4H110.416C110.522 32.8267 110.576 33.36 110.576 34ZM107.216 35.6C107.109 35.1467 107.056 34.6133 107.056 34C107.056 33.36 107.109 32.8267 107.216 32.4H106.016C105.909 31.9467 105.856 31.4133 105.856 30.8C105.856 30.16 105.909 29.6267 106.016 29.2H102.016C102.122 29.6267 102.176 30.16 102.176 30.8C102.176 31.4133 102.122 31.9467 102.016 32.4H100.816C100.922 32.8267 100.976 33.36 100.976 34C100.976 34.6133 100.922 35.1467 100.816 35.6H102.016C102.122 36.0267 102.176 36.56 102.176 37.2C102.176 37.8133 102.122 38.3467 102.016 38.8H106.016C105.909 38.3467 105.856 37.8133 105.856 37.2C105.856 36.56 105.909 36.0267 106.016 35.6H107.216ZM118.191 37.2C118.191 37.8133 118.138 38.3467 118.031 38.8H122.031C122.138 39.2267 122.191 39.76 122.191 40.4C122.191 41.0133 122.138 41.5467 122.031 42H115.631C115.525 41.5467 115.471 41.0133 115.471 40.4C115.471 39.76 115.525 39.2267 115.631 38.8H113.631C113.525 38.3467 113.471 37.8133 113.471 37.2C113.471 36.56 113.525 36.0267 113.631 35.6C113.525 35.1467 113.471 34.6133 113.471 34C113.471 33.36 113.525 32.8267 113.631 32.4C113.525 31.9467 113.471 31.4133 113.471 30.8C113.471 30.16 113.525 29.6267 113.631 29.2C113.525 28.7467 113.471 28.2133 113.471 27.6C113.471 26.96 113.525 26.4267 113.631 26H116.831C116.938 26.4267 116.991 26.96 116.991 27.6C116.991 28.2133 116.938 28.7467 116.831 29.2C116.938 29.6267 116.991 30.16 116.991 30.8C116.991 31.4133 116.938 31.9467 116.831 32.4C116.938 32.8267 116.991 33.36 116.991 34C116.991 34.6133 116.938 35.1467 116.831 35.6H118.031C118.138 36.0267 118.191 36.56 118.191 37.2ZM126.431 29.2C126.538 29.6267 126.591 30.16 126.591 30.8C126.591 31.4133 126.538 31.9467 126.431 32.4C126.538 32.8267 126.591 33.36 126.591 34C126.591 34.6133 126.538 35.1467 126.431 35.6C126.538 36.0267 126.591 36.56 126.591 37.2C126.591 37.8133 126.538 38.3467 126.431 38.8C126.538 39.2267 126.591 39.76 126.591 40.4C126.591 41.0133 126.538 41.5467 126.431 42H123.231C123.125 41.5467 123.071 41.0133 123.071 40.4C123.071 39.76 123.125 39.2267 123.231 38.8H122.031C121.925 38.3467 121.871 37.8133 121.871 37.2C121.871 36.56 121.925 36.0267 122.031 35.6H123.231C123.125 35.1467 123.071 34.6133 123.071 34C123.071 33.36 123.125 32.8267 123.231 32.4C123.125 31.9467 123.071 31.4133 123.071 30.8C123.071 30.16 123.125 29.6267 123.231 29.2C123.125 28.7467 123.071 28.2133 123.071 27.6C123.071 26.96 123.125 26.4267 123.231 26H126.431C126.538 26.4267 126.591 26.96 126.591 27.6C126.591 28.2133 126.538 28.7467 126.431 29.2ZM142.447 29.2C142.554 29.6267 142.607 30.16 142.607 30.8C142.607 31.4133 142.554 31.9467 142.447 32.4H139.247C139.14 31.9467 139.087 31.4133 139.087 30.8C139.087 30.16 139.14 29.6267 139.247 29.2H136.447C136.554 29.6267 136.607 30.16 136.607 30.8C136.607 31.4133 136.554 31.9467 136.447 32.4H135.247C135.354 32.8267 135.407 33.36 135.407 34C135.407 34.6133 135.354 35.1467 135.247 35.6C135.354 36.0267 135.407 36.56 135.407 37.2C135.407 37.8133 135.354 38.3467 135.247 38.8H137.647C137.754 39.2267 137.807 39.76 137.807 40.4C137.807 41.0133 137.754 41.5467 137.647 42H129.647C129.54 41.5467 129.487 41.0133 129.487 40.4C129.487 39.76 129.54 39.2267 129.647 38.8H132.047C131.94 38.3467 131.887 37.8133 131.887 37.2C131.887 36.56 131.94 36.0267 132.047 35.6C131.94 35.1467 131.887 34.6133 131.887 34C131.887 33.36 131.94 32.8267 132.047 32.4C131.94 31.9467 131.887 31.4133 131.887 30.8C131.887 30.16 131.94 29.6267 132.047 29.2H129.647C129.54 28.7467 129.487 28.2133 129.487 27.6C129.487 26.96 129.54 26.4267 129.647 26H133.647C133.754 26.4267 133.807 26.96 133.807 27.6C133.807 28.2133 133.754 28.7467 133.647 29.2H135.247C135.14 28.7467 135.087 28.2133 135.087 27.6C135.087 26.96 135.14 26.4267 135.247 26H141.247C141.354 26.4267 141.407 26.96 141.407 27.6C141.407 28.2133 141.354 28.7467 141.247 29.2H142.447ZM158.463 35.6C158.569 36.0267 158.623 36.56 158.623 37.2C158.623 37.8133 158.569 38.3467 158.463 38.8H156.863C156.969 39.2267 157.023 39.76 157.023 40.4C157.023 41.0133 156.969 41.5467 156.863 42H148.863C148.756 41.5467 148.703 41.0133 148.703 40.4C148.703 39.76 148.756 39.2267 148.863 38.8H147.263C147.156 38.3467 147.103 37.8133 147.103 37.2C147.103 36.56 147.156 36.0267 147.263 35.6H145.663C145.556 35.1467 145.503 34.6133 145.503 34C145.503 33.36 145.556 32.8267 145.663 32.4H147.263C147.156 31.9467 147.103 31.4133 147.103 30.8C147.103 30.16 147.156 29.6267 147.263 29.2H148.863C148.756 28.7467 148.703 28.2133 148.703 27.6C148.703 26.96 148.756 26.4267 148.863 26H156.863C156.969 26.4267 157.023 26.96 157.023 27.6C157.023 28.2133 156.969 28.7467 156.863 29.2H158.463C158.569 29.6267 158.623 30.16 158.623 30.8C158.623 31.4133 158.569 31.9467 158.463 32.4H155.263C155.156 31.9467 155.103 31.4133 155.103 30.8C155.103 30.16 155.156 29.6267 155.263 29.2H150.463C150.569 29.6267 150.623 30.16 150.623 30.8C150.623 31.4133 150.569 31.9467 150.463 32.4H148.863C148.969 32.8267 149.023 33.36 149.023 34C149.023 34.6133 148.969 35.1467 148.863 35.6H150.463C150.569 36.0267 150.623 36.56 150.623 37.2C150.623 37.8133 150.569 38.3467 150.463 38.8H155.263C155.156 38.3467 155.103 37.8133 155.103 37.2C155.103 36.56 155.156 36.0267 155.263 35.6H158.463ZM166.478 22.8C166.371 22.3467 166.318 21.8133 166.318 21.2C166.318 20.56 166.371 20.0267 166.478 19.6H169.678C169.785 20.0267 169.838 20.56 169.838 21.2C169.838 21.8133 169.785 22.3467 169.678 22.8H166.478ZM172.878 38.8C172.985 39.2267 173.038 39.76 173.038 40.4C173.038 41.0133 172.985 41.5467 172.878 42H163.278C163.171 41.5467 163.118 41.0133 163.118 40.4C163.118 39.76 163.171 39.2267 163.278 38.8H166.478C166.371 38.3467 166.318 37.8133 166.318 37.2C166.318 36.56 166.371 36.0267 166.478 35.6C166.371 35.1467 166.318 34.6133 166.318 34C166.318 33.36 166.371 32.8267 166.478 32.4C166.371 31.9467 166.318 31.4133 166.318 30.8C166.318 30.16 166.371 29.6267 166.478 29.2H164.078C163.971 28.7467 163.918 28.2133 163.918 27.6C163.918 26.96 163.971 26.4267 164.078 26H169.678C169.785 26.4267 169.838 26.96 169.838 27.6C169.838 28.2133 169.785 28.7467 169.678 29.2C169.785 29.6267 169.838 30.16 169.838 30.8C169.838 31.4133 169.785 31.9467 169.678 32.4C169.785 32.8267 169.838 33.36 169.838 34C169.838 34.6133 169.785 35.1467 169.678 35.6C169.785 36.0267 169.838 36.56 169.838 37.2C169.838 37.8133 169.785 38.3467 169.678 38.8H172.878ZM188.894 26C189 26.4267 189.054 26.96 189.054 27.6C189.054 28.2133 189 28.7467 188.894 29.2H184.094C184.2 29.6267 184.254 30.16 184.254 30.8C184.254 31.4133 184.2 31.9467 184.094 32.4C184.2 32.8267 184.254 33.36 184.254 34C184.254 34.6133 184.2 35.1467 184.094 35.6C184.2 36.0267 184.254 36.56 184.254 37.2C184.254 37.8133 184.2 38.3467 184.094 38.8H187.294C187.4 39.2267 187.454 39.76 187.454 40.4C187.454 41.0133 187.4 41.5467 187.294 42H179.294C179.187 41.5467 179.134 41.0133 179.134 40.4C179.134 39.76 179.187 39.2267 179.294 38.8H180.894C180.787 38.3467 180.734 37.8133 180.734 37.2C180.734 36.56 180.787 36.0267 180.894 35.6C180.787 35.1467 180.734 34.6133 180.734 34C180.734 33.36 180.787 32.8267 180.894 32.4C180.787 31.9467 180.734 31.4133 180.734 30.8C180.734 30.16 180.787 29.6267 180.894 29.2H179.294C179.187 28.7467 179.134 28.2133 179.134 27.6C179.134 26.96 179.187 26.4267 179.294 26H180.894C180.787 25.5467 180.734 25.0133 180.734 24.4C180.734 23.76 180.787 23.2267 180.894 22.8H182.494C182.387 22.3467 182.334 21.8133 182.334 21.2C182.334 20.56 182.387 20.0267 182.494 19.6H188.894C189 20.0267 189.054 20.56 189.054 21.2C189.054 21.8133 189 22.3467 188.894 22.8H184.094C184.2 23.2267 184.254 23.76 184.254 24.4C184.254 25.0133 184.2 25.5467 184.094 26H188.894ZM206.669 27.6C206.669 28.2133 206.616 28.7467 206.509 29.2H205.309C205.416 29.6267 205.469 30.16 205.469 30.8C205.469 31.4133 205.416 31.9467 205.309 32.4H204.109C204.216 32.8267 204.269 33.36 204.269 34C204.269 34.6133 204.216 35.1467 204.109 35.6H203.309C203.416 36.0267 203.469 36.56 203.469 37.2C203.469 37.8133 203.416 38.3467 203.309 38.8H202.109C202.216 39.2267 202.269 39.76 202.269 40.4C202.269 41.0133 202.216 41.5467 202.109 42H201.309C201.416 42.4267 201.469 42.96 201.469 43.6C201.469 44.2133 201.416 44.7467 201.309 45.2H199.709C199.816 45.6267 199.869 46.16 199.869 46.8C199.869 47.4133 199.816 47.9467 199.709 48.4H194.909C194.803 47.9467 194.749 47.4133 194.749 46.8C194.749 46.16 194.803 45.6267 194.909 45.2H198.109C198.003 44.7467 197.949 44.2133 197.949 43.6C197.949 42.96 198.003 42.4267 198.109 42C198.003 41.5467 197.949 41.0133 197.949 40.4C197.949 39.76 198.003 39.2267 198.109 38.8H196.509C196.403 38.3467 196.349 37.8133 196.349 37.2C196.349 36.56 196.403 36.0267 196.509 35.6H195.709C195.603 35.1467 195.549 34.6133 195.549 34C195.549 33.36 195.603 32.8267 195.709 32.4H194.509C194.403 31.9467 194.349 31.4133 194.349 30.8C194.349 30.16 194.403 29.6267 194.509 29.2H193.309C193.203 28.7467 193.149 28.2133 193.149 27.6C193.149 26.96 193.203 26.4267 193.309 26H196.509C196.616 26.4267 196.669 26.96 196.669 27.6C196.669 28.2133 196.616 28.7467 196.509 29.2H197.709C197.816 29.6267 197.869 30.16 197.869 30.8C197.869 31.4133 197.816 31.9467 197.709 32.4H198.909C199.016 32.8267 199.069 33.36 199.069 34C199.069 34.6133 199.016 35.1467 198.909 35.6C199.016 36.0267 199.069 36.56 199.069 37.2C199.069 37.8133 199.016 38.3467 198.909 38.8H200.109C200.003 38.3467 199.949 37.8133 199.949 37.2C199.949 36.56 200.003 36.0267 200.109 35.6H200.909C200.803 35.1467 200.749 34.6133 200.749 34C200.749 33.36 200.803 32.8267 200.909 32.4H202.109C202.003 31.9467 201.949 31.4133 201.949 30.8C201.949 30.16 202.003 29.6267 202.109 29.2H203.309C203.203 28.7467 203.149 28.2133 203.149 27.6C203.149 26.96 203.203 26.4267 203.309 26H206.509C206.616 26.4267 206.669 26.96 206.669 27.6Z" fill="black" fill-opacity="0.75"/>
<path d="M0 30C0 46.5685 13.4315 60 30 60C46.5685 60 60 46.5685 60 30C60 13.4315 46.5685 0 30 0C13.4315 0 0 13.4315 0 30Z" fill="#2B50AA"/>
<path d="M30.0587 59.413C46.2706 59.413 59.4129 46.2707 59.4129 30.0588C59.4129 13.8469 46.2706 0.70459 30.0587 0.70459C13.8469 0.70459 0.704529 13.8469 0.704529 30.0588C0.704529 46.2707 13.8469 59.413 30.0587 59.413Z" fill="#2B50AA"/>
<path d="M21.9326 42.1567C22.061 42.2743 22.2215 42.3386 22.3713 42.3386C22.521 42.3386 22.6922 42.2743 22.81 42.1567L24.2865 40.7444C24.4148 40.6266 24.4897 40.4554 24.4897 40.2842C24.4897 40.113 24.4148 39.9418 24.2865 39.8242L14.0366 30.0343L24.2865 20.2446C24.4148 20.1268 24.4897 19.9556 24.4897 19.7844C24.4897 19.6132 24.4148 19.4422 24.2865 19.3244L22.81 17.9121C22.6815 17.7945 22.5318 17.7302 22.3713 17.7302C22.2108 17.7302 22.0503 17.7945 21.9326 17.9121L9.71403 29.5743C9.58563 29.6921 9.51074 29.8631 9.51074 30.0343C9.51074 30.2055 9.58563 30.3767 9.71403 30.4945L21.9326 42.1567ZM46.0808 30.0343L35.8309 39.8242C35.7026 39.9418 35.6276 40.113 35.6276 40.2842C35.6276 40.4554 35.7026 40.6266 35.8309 40.7444L37.3074 42.1567C37.4359 42.2743 37.5964 42.3386 37.7461 42.3386C37.8959 42.3386 38.0671 42.2743 38.1848 42.1567L50.4034 30.4945C50.5317 30.3767 50.6066 30.2055 50.6066 30.0343C50.6066 29.8631 50.5317 29.6921 50.4034 29.5743L38.1848 17.9121C38.0564 17.7945 37.8959 17.7302 37.7461 17.7302C37.5856 17.7302 37.4252 17.7945 37.3074 17.9121L35.8309 19.3244C35.7026 19.4422 35.6276 19.6132 35.6276 19.7844C35.6276 19.9556 35.7026 20.1268 35.8309 20.2446L46.0808 30.0343Z" fill="#C5D5EA"/>
<path d="M21.8471 28.8355C21.8364 29.2527 21.9969 29.6486 22.2964 29.9481L22.3071 29.9588C22.5959 30.2478 22.9705 30.4083 23.377 30.4083C23.7516 30.4083 24.1046 30.2692 24.3828 30.023L28.5447 26.3211V37.673C28.5447 38.5076 29.2295 39.1924 30.0641 39.1924C30.8986 39.1924 31.5834 38.5076 31.5834 37.673V26.3104L35.7453 30.0124C36.0236 30.2585 36.3874 30.3975 36.7511 30.3975C37.1577 30.3975 37.5429 30.2371 37.8317 29.9481L37.8424 29.9374C38.142 29.6379 38.2919 29.2527 38.2919 28.8247C38.2811 28.4075 38.1099 28.0223 37.7997 27.7334L31.0805 21.56C30.8023 21.3032 30.4386 21.1641 30.0641 21.1641C29.6896 21.1641 29.3258 21.3032 29.0476 21.56L22.3285 27.7334C22.0289 28.0329 21.8471 28.4182 21.8471 28.8355Z" fill="#C5D5EA"/>
</svg>

<?xml version="1.0" encoding="UTF-8"?>
<svg width="209" height="60" version="1.1" viewBox="0 0 209 60" xmlns="http://www.w3.org/2000/svg">
 <path d="m0 30c0 16.568 13.432 30 30 30s30-13.432 30-30-13.432-30-30-30-30 13.432-30 30z" fill="#2B50AA"/>
 <path d="m30.059 59.413c16.212 0 29.354-13.142 29.354-29.354s-13.142-29.354-29.354-29.354c-16.212 0-29.354 13.142-29.354 29.354s13.142 29.354 29.354 29.354z" fill="#2B50AA"/>
 <text transform="scale(1.2329 .8111)" x="13.88976" y="53.057865" fill="#000000" font-family="sans-serif" font-size="49.316px" stroke-width="1.2329" style="line-height:1.25" xml:space="preserve"><tspan x="13.88976" y="53.057865" fill="#ffffff" stroke-width="1.2329">t</tspan></text>
 <text transform="scale(.84186 1.1878)" x="98.956169" y="37.409336" fill="#000000" font-family="sans-serif" font-size="21.397px" stroke-width="1.3373" style="line-height:1.25" xml:space="preserve"><tspan x="98.956169" y="37.409336" fill="#999999" font-size="21.397px" stroke-width="1.3373">trustcontract</tspan></text>
</svg>
